X: 1
T: Fingal's Cave
T: Uamh Fhinn
C:
O: Ce\`ol nam Feis
S: SRSNH 11.21 "Arranged by B.McOwen, October 2001"
S: Concord Slow Scottish Jam collection
R: march
Z: 2014 John Chambers <jc:trillian.mit.edu>
M: 4/4
L: 1/8
K: Ador
"A"[|]\
EG |\
"Am"A2-A2 BAGA | B2A2 A2ed | "G"B2AG e2dB | "(Em)"d2G2 G2EG |\
"Am"A2-A2 BAGA | B2A2 A2ed | "G"B2AG "(Em)"e2dB | "Am"e2A2 A2 :|
"B1"[|] Bd |\
"Am"e2de g2eg | a2ea "G"g4 | "Am"e2de "G"g2fg | "Em"edBA G2Bd |\
"Am"e2de g2eg | a2ea "G"g4 | "Em"gefd gedB | "Am"e2A2 A2 |]
"B2"[|]Bd |\
"Am"e2de g2eg | a2ea "G"g4 | "Am"e2de "G"g2fg | "Em"edBA GABG |\
"C"c2Bc "G"d2cd | "Am"e2de "F"a4 | "C"ge"D"fd "Em"gedB | "Am"e2A2 A2 |]

%%sep 1 1 500

